<?xml version="1.0" encoding="UTF-8"?>
<map version="1.10" tiledversion="1.12.2" orientation="orthogonal" renderorder="right-down" width="60" height="34" tilewidth="8" tileheight="8" infinite="0" backgroundcolor="#eabe97" nextlayerid="5" nextobjectid="54">
 <editorsettings>
  <export target="escena1.lua" format="lua"/>
 </editorsettings>
 <tileset firstgid="1" name="fondo_tileset" tilewidth="8" tileheight="8" tilecount="144" columns="12">
  <image source="fondo_tileset.png" width="96" height="96"/>
 </tileset>
 <layer id="1" name="piso" width="60" height="34">
  <data encoding="csv">
1,2,2,2,2,2,2,2,2,2,2,2,2,2,2,2,2,2,2,2,2,2,2,2,2,2,2,2,2,2,2,2,2,2,2,2,2,2,2,2,2,2,2,2,2,2,2,2,2,2,2,2,2,2,2,2,2,2,2,3,
13,14,14,14,14,14,14,14,14,14,14,14,14,14,14,14,14,14,14,14,14,14,14,14,14,14,14,14,14,14,14,14,14,14,14,14,14,14,14,14,14,14,14,14,14,14,14,14,14,14,14,14,14,14,14,14,14,14,14,15,
13,14,14,14,14,14,14,14,14,14,14,14,14,14,14,14,14,14,14,14,14,14,14,14,14,14,14,14,14,14,14,14,14,14,14,14,14,14,14,14,14,37,38,37,38,37,38,37,38,14,14,14,14,14,14,14,14,14,14,15,
13,14,14,14,14,14,14,14,14,14,14,14,14,14,14,14,14,14,14,14,14,14,14,14,14,14,14,14,14,8,14,14,14,14,14,14,14,14,14,14,14,37,14,14,14,14,14,14,14,14,14,14,14,14,14,14,14,14,14,15,
13,14,14,14,14,14,14,14,14,14,14,14,14,14,14,14,14,14,14,14,14,14,14,14,14,14,14,14,14,2684354567,14,14,14,14,14,14,14,14,14,14,14,37,14,14,14,14,14,14,37,38,37,38,37,38,37,14,14,14,14,15,
13,14,14,14,14,16,17,14,14,14,14,14,14,14,14,14,14,14,14,14,14,14,14,14,14,14,14,14,14,2684354567,14,14,14,14,14,14,14,14,14,14,14,37,14,14,14,14,14,14,14,14,14,14,14,14,37,14,14,14,14,15,
13,14,14,14,14,28,29,14,14,14,14,14,14,14,14,14,14,14,14,14,14,14,14,14,14,14,14,14,14,20,14,14,14,14,14,14,14,14,14,14,14,37,14,14,14,14,14,14,14,14,14,16,17,14,37,14,14,14,14,15,
13,14,14,14,14,14,14,14,14,14,14,14,14,14,14,14,14,14,14,14,14,14,14,14,14,14,14,14,14,14,14,14,14,14,14,14,14,14,14,14,14,37,38,37,38,37,38,37,14,14,14,28,29,14,37,14,14,14,14,15,
13,14,14,14,14,14,14,14,14,14,14,14,14,14,14,14,14,14,14,14,14,14,14,14,14,14,14,14,14,14,14,14,14,14,14,14,14,14,14,14,14,14,14,14,14,14,14,37,14,14,14,14,14,14,37,14,14,14,14,15,
13,14,14,14,14,14,14,14,14,14,14,14,14,14,14,14,14,14,14,14,14,14,14,14,14,14,14,14,14,14,14,14,14,14,14,14,14,14,14,14,14,14,14,14,14,14,14,37,37,38,37,38,37,38,37,14,14,14,14,15,
13,14,14,14,14,14,14,14,14,14,14,14,14,14,14,14,14,14,14,14,14,14,14,14,14,14,14,14,14,14,14,14,14,14,14,14,14,14,14,14,14,14,14,14,14,14,14,14,14,14,14,14,14,14,14,14,14,14,14,15,
13,14,14,14,14,14,14,14,14,14,14,14,14,14,14,14,14,14,14,14,14,14,14,14,14,14,14,14,14,14,14,14,14,14,14,14,14,14,14,14,14,14,14,14,14,14,14,14,14,14,14,14,14,14,14,14,14,14,14,15,
13,14,14,14,14,14,14,14,14,14,14,14,14,14,14,14,14,14,14,14,14,14,14,14,14,14,14,14,14,14,14,14,14,14,14,14,14,14,14,14,14,14,14,14,14,14,14,14,14,14,14,14,14,14,14,14,14,14,14,15,
13,14,14,14,14,14,14,14,14,14,14,14,14,14,14,14,14,14,14,14,14,14,14,14,14,14,14,14,14,14,14,14,14,14,14,14,14,14,14,14,14,14,14,14,14,14,14,14,14,14,14,14,14,14,14,14,14,14,14,15,
13,14,14,14,14,14,14,14,14,14,14,14,14,14,14,14,14,14,14,14,14,14,14,14,14,14,14,14,14,14,14,14,14,14,16,17,14,14,14,14,14,14,14,14,14,14,14,14,14,14,14,14,14,14,14,14,14,14,14,15,
13,14,14,14,14,14,14,14,14,14,42,55,44,14,14,14,14,14,14,14,16,17,14,14,14,14,14,14,14,14,14,14,14,14,28,29,14,14,14,14,14,14,14,14,14,14,14,14,14,14,14,14,14,14,14,14,14,14,14,15,
13,14,14,14,14,14,14,14,14,14,54,14,56,14,14,14,14,14,14,14,28,29,14,14,14,14,14,14,14,14,14,14,14,14,14,14,14,14,14,14,14,14,14,14,14,14,14,14,14,14,14,14,14,14,14,14,14,14,14,15,
13,14,14,14,14,14,14,14,14,14,66,67,68,14,14,14,14,14,14,14,14,14,14,14,14,14,14,14,14,14,14,14,14,14,14,14,14,14,14,14,14,14,14,14,14,14,14,14,14,14,14,14,14,14,14,14,14,14,14,15,
13,14,14,14,14,14,14,14,14,14,14,14,14,14,14,14,14,14,14,14,14,14,14,14,14,14,14,14,14,14,14,14,14,14,14,14,14,14,14,14,14,14,14,14,14,14,14,14,14,14,14,14,14,14,14,14,14,14,14,15,
13,14,14,14,14,14,14,14,14,14,14,14,14,14,14,14,14,14,14,14,14,14,14,14,14,14,14,14,14,14,14,14,14,14,14,14,14,14,14,14,14,14,14,14,14,14,14,14,14,14,14,14,14,14,14,14,14,14,14,15,
13,14,14,14,14,14,14,14,14,14,14,14,14,14,14,14,14,14,14,14,14,14,14,14,14,14,14,14,49,49,49,49,49,14,14,14,14,14,14,14,14,14,14,14,14,14,14,14,14,14,14,14,14,14,14,14,14,14,14,15,
13,14,14,14,14,14,14,14,14,14,14,14,14,14,14,14,14,14,14,14,14,14,14,14,14,14,14,14,49,14,14,14,49,14,14,14,14,14,14,14,14,14,14,14,14,14,14,14,14,14,14,14,14,14,14,14,14,14,14,15,
13,14,14,14,14,14,14,14,14,14,14,14,14,14,14,14,14,14,14,14,14,14,14,14,14,14,14,14,49,14,64,14,49,14,14,14,14,14,14,14,14,14,14,14,14,14,14,50,50,50,50,50,50,50,50,50,50,50,14,15,
13,14,14,14,14,14,14,14,14,14,14,14,14,14,6,14,14,14,14,14,14,14,14,14,14,14,14,14,49,14,76,14,49,14,14,14,14,14,14,14,14,14,14,14,14,14,14,50,14,14,14,14,14,14,14,14,14,50,14,15,
13,14,14,14,14,14,14,14,14,14,14,14,14,14,1610612743,14,14,14,14,14,14,14,14,14,14,14,14,14,49,14,14,14,49,14,14,14,14,14,14,14,14,14,14,14,14,14,14,50,14,9,9,10,11,9,10,11,14,50,14,15,
13,14,14,14,14,14,14,14,14,14,14,14,14,14,1610612743,14,14,14,14,14,14,14,14,14,14,14,14,14,49,14,14,14,49,14,14,14,14,14,14,14,14,14,14,14,14,14,14,50,14,21,22,22,22,22,22,23,14,50,14,15,
13,14,14,14,14,14,14,14,14,14,14,14,14,14,1610612743,14,14,14,14,14,14,14,14,14,14,16,17,14,14,14,14,14,49,14,14,14,14,14,14,14,14,14,14,14,14,14,14,50,14,21,22,14,14,14,22,35,14,50,14,15,
13,14,14,14,14,14,14,14,14,14,14,14,14,14,1610612743,14,14,14,14,14,14,14,14,14,14,28,29,14,14,14,14,14,49,14,14,14,14,14,14,14,14,14,14,14,14,14,14,50,14,21,22,14,4,14,22,11,14,50,14,15,
13,14,14,14,14,14,14,14,14,14,14,14,14,14,18,14,14,14,14,14,14,14,14,14,14,14,14,14,49,14,14,14,49,14,14,14,14,14,14,14,14,14,14,14,14,14,14,50,14,21,22,22,22,22,22,23,14,50,14,15,
13,14,14,14,14,14,14,14,14,14,14,14,14,14,14,14,14,14,14,14,14,14,14,14,14,14,14,14,49,14,14,14,49,14,14,14,14,14,14,14,14,14,14,14,14,14,14,50,14,33,34,34,22,34,34,35,14,50,14,15,
13,14,14,14,14,14,14,14,14,14,14,14,14,14,14,14,14,14,14,14,14,14,14,14,14,14,14,14,49,14,14,14,49,14,14,14,14,14,14,14,14,14,14,14,14,14,14,50,14,14,14,14,14,14,14,14,14,14,14,15,
13,14,14,14,14,14,14,14,14,14,14,14,14,14,14,14,14,14,14,14,14,14,14,14,14,14,14,14,49,14,14,14,49,14,14,14,14,14,14,14,14,14,14,14,14,14,14,50,50,50,50,50,50,50,50,50,50,50,14,15,
13,14,14,14,14,14,14,14,14,14,14,14,14,14,14,14,14,14,14,14,14,14,14,14,14,14,14,14,49,14,14,14,49,14,14,14,14,14,14,14,14,14,14,14,14,14,14,14,14,14,14,14,14,14,14,14,14,14,14,15,
25,26,26,26,26,26,26,26,26,26,26,26,26,26,26,26,26,26,26,26,26,26,26,26,26,26,26,26,26,26,26,26,26,26,26,26,26,26,26,26,26,26,26,26,26,26,26,26,26,26,26,26,26,26,26,26,26,26,26,27
</data>
 </layer>
 <objectgroup id="2" name="paredes">
  <object id="1" x="223.5" y="159.5" width="8" height="48"/>
  <object id="2" x="223.5" y="224.5" width="8" height="40"/>
  <object id="4" x="256" y="160" width="8" height="104"/>
  <object id="6" x="232.25" y="159.75" width="23" height="8"/>
  <object id="7" x="376.25" y="176" width="88" height="8"/>
  <object id="8" x="376" y="184.5" width="8" height="72"/>
  <object id="9" x="384.5" y="247.75" width="80" height="8"/>
  <object id="10" x="455.75" y="185" width="8.5" height="54.75"/>
  <object id="27" x="80" y="119.5" width="24.5" height="23.5"/>
  <object id="44" x="384.667" y="32.3333" width="54.3333" height="5.66667"/>
  <object id="45" x="432.667" y="40.3333" width="6.33333" height="39.3333"/>
  <object id="46" x="376.333" y="72.3333" width="55" height="7"/>
  <object id="47" x="376.667" y="58" width="6.33333" height="12.6667"/>
  <object id="48" x="328.667" y="57.3333" width="47" height="5.66667"/>
  <object id="49" x="328.333" y="16.6667" width="6.66667" height="37.6667"/>
  <object id="50" x="336.333" y="16" width="55" height="7.33333"/>
  <object id="51" x="112.333" y="184" width="7.33333" height="47"/>
  <object id="52" x="231.333" y="23.3333" width="8" height="32.6667"/>
 </objectgroup>
 <objectgroup id="3" name="caida">
  <object id="20" x="0" y="0.5" width="8" height="272"/>
  <object id="21" x="471.5" y="0" width="8" height="272"/>
  <object id="22" x="8.5" y="0" width="461" height="8"/>
  <object id="23" x="9.5" y="264.5" width="461" height="8"/>
  <object id="24" x="161.5" y="120.5" width="12" height="14.5"/>
  <object id="25" x="273" y="112.5" width="12" height="14.5"/>
  <object id="26" x="201" y="209" width="13.5" height="13"/>
  <object id="30" x="41.6875" y="42.125" width="12" height="12"/>
  <object id="39" x="416.667" y="215.667" width="7.33333" height="8"/>
  <object id="43" x="408.333" y="48" width="15" height="15.6667"/>
 </objectgroup>
 <objectgroup id="4" name="entidades">
  <object id="32" name="Cactusa" x="112.333" y="40.6667" width="7.33333" height="7"/>
  <object id="35" name="Cactusa" x="207.667" y="104" width="7.33333" height="7"/>
  <object id="33" name="Enemigo" x="144" y="63.6667" width="8" height="8.66667"/>
  <object id="36" name="Enemigo" x="200" y="167.333" width="8" height="8.66667"/>
  <object id="34" name="ZorzalNPC" x="239.667" y="227.333" width="8.33333" height="8.33333"/>
  <object id="37" name="Enemigo2" x="352.667" y="32.6667" width="4" height="4"/>
 </objectgroup>
</map>
